jsapp/svg-icons/clone.svg

<?xml version="1.0" encoding="UTF-8"?>
<svg width="40px" height="40px" viewBox="0 0 40 40" version="1.1" xmlns="http://www.w3.org/2000/svg" xmlns:xlink="http://www.w3.org/1999/xlink">
    <!-- Generator: Sketch 50.2 (55047) - http://www.bohemiancoding.com/sketch -->
    <title>Icons/clone</title>
    <desc>Created with Sketch.</desc>
    <defs>
        <path d="M27.0015,25 L17.0005,25 L17.0005,11 L23.0005,11 L23.0005,15 L27.0005,15 L27.0015,25 Z M24.4145,9 L29.0005,13.586 L29.0005,25 C29.0005,26.103 28.1035,27 27.0005,27 L17.0005,27 C15.8975,27 15.0005,26.103 15.0005,25 L15.0005,11 C15.0005,9.898 15.8975,9 17.0005,9 L24.4145,9 Z M13,13 L13,29 L25,29 L25,31 L13,31 C11.897,31 11,30.103 11,29 L11,13 L13,13 Z" id="path-1"></path>
    </defs>
    <g id="Icons/clone" stroke="none" stroke-width="1" fill="none" fill-rule="evenodd">
        <mask id="mask-2" fill="white">
            <use xlink:href="#path-1"></use>
        </mask>
        <use id="Mask" fill="#000000" xlink:href="#path-1"></use>
    </g>
</svg>

<svg height="40" viewBox="0 0 40 40" width="40" xmlns="http://www.w3.org/2000/svg"><path d="m27.0015 25h-10.001v-14h6v4h4zm-2.587-16 4.586 4.586v11.414c0 1.103-.897 2-2 2h-10c-1.103 0-2-.897-2-2v-14c0-1.102.897-2 2-2zm-11.4145 4v16h12v2h-12c-1.103 0-2-.897-2-2v-16z" fill-rule="evenodd"/></svg>
